!!!OTL: Entschwundenes Gl&uuml;ck (124), 1. Melodie, S.284
!!!id: T0289
**kern
*clefG2
*k[f#c#]
*D:
{4f#
=1
4f#
4f#
4f#
=2
8e
8f#
4g}
=3
{8e
8f#
=4
4g
4a
8b
8a
=5
4a}
4r
=6
{8f#
8g
=7
4a
4f#
8b
8a
=8
8a
8e
4e}
=9
{8a
8dd
=10
8cc#
8b
4a
4g
=11
4f#}
4r
==
*-
!!!minrhy: 8
!!!meters: 3/4 ]  ZZ[4
!!!cut: Entschwundenes Gl&uuml;ck (124), 1. Melodie, S.284
!!!reg: Luxemburg
!!!trd: Singendes Volk, Esch-Alzette 1937 posth.
!!!rhy1: X_  X_X_X_  XXX_
!!!rhy2: XX  X_X_XX  X_0_
!!!key: T0289  08  D 3/4 ]  ZZ[4
!!!mod: HEPTATONIK IONISCH]  AMBITUS[7b
!!!kad: 4523
!!!akz: 32_45_55_73_
!!!fot: 'a__b__c__d__
!!!for: 'a__b__bw_c__
!!!fok: '/__/__^d_^d_
!! PHRAS[AUFTAKTIG]
!!!fkt: Liebeslieder
!!!bem: Esch-Alzette, fff Franziska M&uuml;ller-M&uuml;ller, 14.1.1914
!! THILL, Mathias:
!! PR[19] 2K[13] 2G[16] 3K[0] 3G[0] 4A[10] 4Ü[0] 5A[0] 6K[0] 6G[0]
!! 7K[0] 7G[0] 8A[0] MEHR[0] SI[39] ABS[31] SR[29] SP[10]
!! ST[8] 2k[10] 2g[19] 3k[10] 3g[0] 4d[3] 4ü[0] 5d[0] 6k[0] 6g[0]
!! 7k[0] 7g[0] 8d[0] mehr[0] si[42] dm[-3] sr[29] sp[13]
!! 1F[55] 2F[45] 3F[0] 4F[0] LF[0] 2P[0] 3P[0] 4P[0] TRI[0] DF[2] AB[33]
!! TF[0] U3K[0] U3[0] U4[0] U4Ü[0] U5[0] U6K[0] U6[0] U7K[0] U7[0]
!! N1[0] N2K[0] N2[13] N3K[0] N3[31] N4[16] N4Ü[0] N5[25] N6K[0] N6[9]
!!!n7k: 0] N7[3] O1[3] O2K[0] O2[0] O3K[0] O3[0] HÖ[0
!!!RNB: symbol: &uuml;  = u umlaut (UTF-8: Ã¼)
